X: 21
T: Peter Pull Haul.
%C: Mr. Gray
%R: slip-jig
B: Mr. Gray "24 Country Dances for the Year 1805" p.11 #1
S: http://folkopedia.efdss.org/images/9/92/ThompsGray_24_1805.PDF  2013-12-2
Z: 2013 John Chambers <jc:trillian.mit.edu>
M: 9/8
L: 1/8
K: A
|:\
A3 cBA ecA | b2B BcA GFE |\
A3 cBA ecA | Fdc BAG A3 :|
|:\
c2e aed cBA | d2f bge efg |\
({b}aga) ({b}aga) ecA | Fdc BAG | A3 :|
% - - - - - - - - - - - - - - - - - - - - - - - - -

